X: 13
T:Housework
M:2/4
L:1/8
Q:240
C:Alan Muggeridge
K:D
z4A4|:&quot;D&quot;FD3-|D2zD|D2B,A,|D4|AF3-|F2zF|F>F GF|A4|!
FA2A |&quot;G&quot;Bd2e|&quot;D&quot;d4-|d2zd|d2BA |FDzF|&quot;A&quot;FE DC| &quot;D&quot;D4-|D2z2:||!
&quot;A&quot;zAAA|AAFE|AAA^G|A2z2|&quot;G&quot;BBBB|B2AG|B4-|B3B|!
&quot;E&quot;B2BB|^GEEE|B2BB|^G3z|&quot;A&quot;ecdB|cABc|A4:||
